src/images/single-assets/RABBIT.svg

<svg width="96" height="96" viewBox="0 0 96 96" fill="none" xmlns="http://www.w3.org/2000/svg">
<path d="M48 96C74.5097 96 96 74.5097 96 48C96 21.4903 74.5097 0 48 0C21.4903 0 0 21.4903 0 48C0 74.5097 21.4903 96 48 96Z" fill="#4D1D00"/>
<path d="M48 93.5517C73.1577 93.5517 93.552 73.1574 93.552 47.9998C93.552 22.8421 73.1577 2.44775 48 2.44775C22.8423 2.44775 2.448 22.8421 2.448 47.9998C2.448 73.1574 22.8423 93.5517 48 93.5517Z" fill="#F9F3D2"/>
<path d="M45.696 41.9042C35.088 41.9042 29.28 51.5042 28.128 57.5042C27.456 60.9122 28.128 64.0322 30.096 66.7202C33.552 71.4242 40.128 73.8242 43.536 74.2082C53.424 75.4082 60.48 73.6322 64.512 68.9282C70.272 62.2082 66.576 53.7602 65.376 50.9762C64.128 48.4802 57.888 41.4242 45.696 41.9042Z" fill="white"/>
<path d="M49.1039 76.5123C47.2799 76.5123 45.3119 76.3683 43.2479 76.1283C39.5519 75.6963 32.3039 73.0563 28.5119 67.8723C26.2079 64.7523 25.4399 61.1523 26.2079 57.1683C27.5519 50.0643 31.4879 45.9843 34.5599 43.7763C37.8719 41.4243 42.0479 39.9843 45.6479 39.9843C61.3919 39.3603 67.0079 50.0643 67.0559 50.2083C70.6559 58.4163 70.2719 65.1363 65.9039 70.2243C62.3519 74.4003 56.6879 76.5123 49.1039 76.5123ZM45.6959 41.9043C35.0879 41.9043 29.2799 51.5043 28.1279 57.5043C27.4559 60.9123 28.1279 64.0323 30.0959 66.7203C33.5519 71.4243 40.1279 73.8243 43.5359 74.2083C53.4239 75.4083 60.4799 73.6323 64.5119 68.9283C70.2719 62.2083 66.5759 53.7603 65.3759 50.9763C64.1279 48.4803 57.8879 41.4243 45.6959 41.9043Z" fill="#551D0D"/>
<path d="M47.76 81.1197C44.208 81.1197 40.32 80.7357 36.096 79.8237C16.176 75.5037 17.376 58.5117 18.816 51.4557C19.728 46.8957 23.184 42.0957 29.136 37.1517C25.824 24.1917 25.392 21.3597 25.392 20.3997C25.392 17.6637 26.88 15.5037 29.28 14.7837C32.112 13.9677 34.368 14.8317 35.76 17.3757C36.768 19.1517 37.968 23.7117 39.12 28.1277C39.552 29.7117 39.936 31.2477 40.32 32.5437C44.304 31.4397 49.008 31.2957 54.336 32.1597C56.256 20.9757 58.608 15.3597 61.872 14.4477C63.12 14.1117 64.944 14.3997 66.336 15.2157C67.632 15.9837 68.496 17.0397 68.832 18.3837C69.792 22.1277 68.256 27.7917 66.816 33.2637C66.432 34.6557 66.096 35.9517 65.808 37.1517C70.8 41.3277 76.656 48.0957 77.232 57.2157C77.664 63.7917 75.12 69.6957 72.576 72.4317C69.168 76.0797 60.576 81.1197 47.76 81.1197ZM29.856 16.5597C28.272 17.0397 27.312 18.4317 27.312 20.3517C27.312 21.3117 27.984 25.0077 31.104 37.2477L31.248 37.8237L30.768 38.2077C24.96 43.0557 21.552 47.6157 20.736 51.8397C16.896 70.7517 28.992 76.3197 36.576 77.9517C59.76 82.9917 70.848 71.5677 71.28 71.0397C72.912 69.3117 75.888 64.2237 75.408 57.2637C74.928 50.3517 71.088 43.7757 64.224 38.1597L63.744 37.7757L63.888 37.1997C64.224 35.7597 64.608 34.2717 65.04 32.6877C66.384 27.6957 67.872 22.0797 67.056 18.8157C66.816 17.8077 66.048 17.1837 65.472 16.8477C64.416 16.2237 63.12 16.0797 62.496 16.2717C61.104 16.6557 58.464 19.3917 56.208 33.4077L56.064 34.3677L55.104 34.1757C49.248 33.1197 44.208 33.2637 40.08 34.6077L39.12 34.8957L38.832 33.9357C38.4 32.4477 37.872 30.5277 37.344 28.5117C36.24 24.4797 35.04 19.8717 34.128 18.2877C33.168 16.5117 31.824 15.9837 29.856 16.5597Z" fill="#551D0D"/>
<path d="M69.408 60.0479L68.352 59.9999C53.328 59.4719 49.536 52.7039 48.288 49.2959C45.312 55.1999 36.24 61.1999 26.88 58.2719L26.064 58.0319L26.208 57.2159C27.552 50.1119 31.488 46.0319 34.56 43.8239C37.872 41.4719 42.048 40.0319 45.648 40.0319C59.568 39.5039 68.64 46.7519 69.312 59.0399L69.408 60.0479ZM48.384 46.0799C49.248 46.1279 49.488 46.8479 49.728 47.6159C52.704 56.7839 62.544 57.7919 67.344 58.0319C66.288 47.5679 58.08 41.4239 45.744 41.9039H45.696C40.224 41.9039 30.816 45.9359 28.32 56.6399C37.296 58.9439 45.024 52.3199 46.848 47.8079C47.232 46.8959 47.568 46.0799 48.384 46.0799Z" fill="#551D0D"/>
<path fill-rule="evenodd" clip-rule="evenodd" d="M39.888 64.7519C41.232 64.7519 42.288 63.4559 42.288 61.9199C42.288 60.3359 41.232 59.0879 39.888 59.0879C38.544 59.0879 37.488 60.3839 37.488 61.9199C37.488 63.4559 38.544 64.7519 39.888 64.7519Z" fill="#27A6E1"/>
<path fill-rule="evenodd" clip-rule="evenodd" d="M47.8079 66.9121C48.4319 66.9121 48.9119 66.4321 48.9119 65.8081C48.9119 65.1841 48.4319 64.7041 47.8079 64.7041C47.1839 64.7041 46.7039 65.1841 46.7039 65.8081C46.7039 66.4321 47.1839 66.9121 47.8079 66.9121Z" fill="#E52D22"/>
<path fill-rule="evenodd" clip-rule="evenodd" d="M55.2479 64.7519C56.5919 64.7519 57.6479 63.4559 57.6479 61.9199C57.6479 60.3359 56.5919 59.0879 55.2479 59.0879C53.9039 59.0879 52.8479 60.3839 52.8479 61.9199C52.8479 63.4559 53.9039 64.7519 55.2479 64.7519Z" fill="#27A6E1"/>
<path fill-rule="evenodd" clip-rule="evenodd" d="M35.9519 68.688C37.7759 68.688 39.2639 68.208 39.2639 67.584C39.2639 66.96 37.7759 66.48 35.9519 66.48C34.1279 66.48 32.6399 66.96 32.6399 67.584C32.6399 68.208 34.1279 68.688 35.9519 68.688Z" fill="#E29478"/>
<path fill-rule="evenodd" clip-rule="evenodd" d="M60.9599 68.688C62.7839 68.688 64.2719 68.208 64.2719 67.584C64.2719 66.96 62.7839 66.48 60.9599 66.48C59.1359 66.48 57.6479 66.96 57.6479 67.584C57.6479 68.208 59.1359 68.688 60.9599 68.688Z" fill="#E29478"/>
<path fill-rule="evenodd" clip-rule="evenodd" d="M31.0559 20.0641C30.2399 20.3521 29.1359 21.4081 29.7599 23.2321C30.1919 24.4801 31.1519 28.6561 32.6399 35.7121L36.7679 34.8481C35.1839 27.6481 34.1279 23.3281 33.5999 21.8881C32.7839 19.7761 31.8719 19.7761 31.0559 20.0641Z" fill="#E29478"/>
<path d="M48.3841 46.0801C49.2481 46.1281 49.4881 46.8481 49.7281 47.6161C52.7041 56.7841 62.5441 57.7921 67.3441 58.0321C66.2881 47.5681 58.0801 41.4241 45.7441 41.9041H45.6961C40.2241 41.9041 30.8161 45.9361 28.3201 56.6401C37.2961 58.9441 45.0241 52.3201 46.8481 47.8081C47.2321 46.8961 47.5681 46.0801 48.3841 46.0801Z" fill="#FFDF02"/>
<path fill-rule="evenodd" clip-rule="evenodd" d="M64.272 19.1524C65.088 19.4404 66.1921 20.4964 65.5681 22.3204C65.1361 23.5684 64.1761 27.7444 62.6881 34.8004L58.5601 33.9364C60.1441 26.7364 61.2001 22.4164 61.7281 20.9764C62.5441 18.9124 63.4561 18.8644 64.272 19.1524Z" fill="#E29478"/>
<path d="M48.096 69.1677C47.088 69.1677 45.984 68.8797 44.784 68.3517C44.352 68.1597 44.16 67.6797 44.352 67.2477C44.544 66.8157 45.024 66.6237 45.456 66.8157C47.376 67.6797 48.816 67.7277 49.872 66.9117C50.256 66.6237 50.736 66.7197 51.024 67.0557C51.312 67.4397 51.216 67.9197 50.88 68.2077C50.064 68.8317 49.152 69.1677 48.096 69.1677Z" fill="#551D0D"/>
</svg>

<svg xmlns="http://www.w3.org/2000/svg" width="96" height="96" fill="none"><path fill="#4D1D00" d="M48 96c26.51 0 48-21.49 48-48S74.51 0 48 0 0 21.49 0 48s21.49 48 48 48"/><path fill="#F9F3D2" d="M48 93.552c25.158 0 45.552-20.395 45.552-45.552C93.552 22.842 73.158 2.448 48 2.448S2.448 22.842 2.448 48c0 25.157 20.394 45.552 45.552 45.552"/><path fill="#fff" d="M45.696 41.904c-10.608 0-16.416 9.6-17.568 15.6-.672 3.408 0 6.528 1.968 9.216 3.456 4.704 10.032 7.104 13.44 7.488 9.888 1.2 16.944-.576 20.976-5.28 5.76-6.72 2.064-15.168.864-17.952-1.248-2.496-7.488-9.552-19.68-9.072"/><path fill="#551D0D" d="M49.104 76.512c-1.824 0-3.792-.144-5.856-.384-3.696-.432-10.944-3.072-14.736-8.256-2.304-3.12-3.072-6.72-2.304-10.704 1.344-7.104 5.28-11.184 8.352-13.392 3.312-2.352 7.488-3.792 11.088-3.792 15.744-.624 21.36 10.08 21.408 10.224 3.6 8.208 3.216 14.928-1.152 20.016-3.552 4.176-9.216 6.288-16.8 6.288m-3.408-34.608c-10.608 0-16.416 9.6-17.568 15.6-.672 3.408 0 6.528 1.968 9.216 3.456 4.704 10.032 7.104 13.44 7.488 9.888 1.2 16.944-.576 20.976-5.28 5.76-6.72 2.064-15.168.864-17.952-1.248-2.496-7.488-9.552-19.68-9.072"/><path fill="#551D0D" d="M47.76 81.12c-3.552 0-7.44-.384-11.664-1.296-19.92-4.32-18.72-21.312-17.28-28.368.912-4.56 4.368-9.36 10.32-14.304-3.312-12.96-3.744-15.792-3.744-16.752 0-2.736 1.488-4.896 3.888-5.616 2.832-.816 5.088.048 6.48 2.592 1.008 1.776 2.208 6.336 3.36 10.752.432 1.584.816 3.12 1.2 4.416 3.984-1.104 8.688-1.248 14.016-.384 1.92-11.184 4.272-16.8 7.536-17.712 1.248-.336 3.072-.048 4.464.768 1.296.768 2.16 1.824 2.496 3.168.96 3.744-.576 9.408-2.016 14.88q-.576 2.088-1.008 3.888c4.992 4.176 10.848 10.944 11.424 20.064.432 6.576-2.112 12.48-4.656 15.216-3.408 3.648-12 8.688-24.816 8.688M29.856 16.56c-1.584.48-2.544 1.872-2.544 3.792 0 .96.672 4.656 3.792 16.896l.144.576-.48.384c-5.808 4.848-9.216 9.408-10.032 13.632-3.84 18.912 8.256 24.48 15.84 26.112 23.184 5.04 34.272-6.384 34.704-6.912 1.632-1.728 4.608-6.816 4.128-13.776-.48-6.912-4.32-13.488-11.184-19.104l-.48-.384.144-.576c.336-1.44.72-2.928 1.152-4.512 1.344-4.992 2.832-10.608 2.016-13.872-.24-1.008-1.008-1.632-1.584-1.968-1.056-.624-2.352-.768-2.976-.576-1.392.384-4.032 3.12-6.288 17.136l-.144.96-.96-.192c-5.856-1.056-10.896-.912-15.024.432l-.96.288-.288-.96c-.432-1.488-.96-3.408-1.488-5.424-1.104-4.032-2.304-8.64-3.216-10.224-.96-1.776-2.304-2.304-4.272-1.728"/><path fill="#551D0D" d="M69.408 60.048 68.352 60c-15.024-.528-18.816-7.296-20.064-10.704C45.312 55.2 36.24 61.2 26.88 58.272l-.816-.24.144-.816c1.344-7.104 5.28-11.184 8.352-13.392 3.312-2.352 7.488-3.792 11.088-3.792 13.92-.528 22.992 6.72 23.664 19.008zM48.384 46.08c.864.048 1.104.768 1.344 1.536 2.976 9.168 12.816 10.176 17.616 10.416-1.056-10.464-9.264-16.608-21.6-16.128h-.048c-5.472 0-14.88 4.032-17.376 14.736 8.976 2.304 16.704-4.32 18.528-8.832.384-.912.72-1.728 1.536-1.728"/><path fill="#27A6E1" fill-rule="evenodd" d="M39.888 64.752c1.344 0 2.4-1.296 2.4-2.832 0-1.584-1.056-2.832-2.4-2.832s-2.4 1.296-2.4 2.832 1.056 2.832 2.4 2.832" clip-rule="evenodd"/><path fill="#E52D22" fill-rule="evenodd" d="M47.808 66.912c.624 0 1.104-.48 1.104-1.104s-.48-1.104-1.104-1.104-1.104.48-1.104 1.104.48 1.104 1.104 1.104" clip-rule="evenodd"/><path fill="#27A6E1" fill-rule="evenodd" d="M55.248 64.752c1.344 0 2.4-1.296 2.4-2.832 0-1.584-1.056-2.832-2.4-2.832s-2.4 1.296-2.4 2.832 1.056 2.832 2.4 2.832" clip-rule="evenodd"/><path fill="#E29478" fill-rule="evenodd" d="M35.952 68.688c1.824 0 3.312-.48 3.312-1.104s-1.488-1.104-3.312-1.104-3.312.48-3.312 1.104 1.488 1.104 3.312 1.104M60.96 68.688c1.824 0 3.312-.48 3.312-1.104s-1.488-1.104-3.312-1.104-3.312.48-3.312 1.104 1.488 1.104 3.312 1.104M31.056 20.064c-.816.288-1.92 1.344-1.296 3.168.432 1.248 1.392 5.424 2.88 12.48l4.128-.864q-2.376-10.8-3.168-12.96c-.816-2.112-1.728-2.112-2.544-1.824" clip-rule="evenodd"/><path fill="#FFDF02" d="M48.384 46.08c.864.048 1.104.768 1.344 1.536 2.976 9.168 12.816 10.176 17.616 10.416-1.056-10.464-9.264-16.608-21.6-16.128h-.048c-5.472 0-14.88 4.032-17.376 14.736 8.976 2.304 16.704-4.32 18.528-8.832.384-.912.72-1.728 1.536-1.728"/><path fill="#E29478" fill-rule="evenodd" d="M64.272 19.152c.816.288 1.92 1.344 1.296 3.168-.432 1.248-1.392 5.424-2.88 12.48l-4.128-.864q2.376-10.8 3.168-12.96c.816-2.064 1.728-2.112 2.544-1.824" clip-rule="evenodd"/><path fill="#551D0D" d="M48.096 69.168c-1.008 0-2.112-.288-3.312-.816a.826.826 0 0 1-.432-1.104.826.826 0 0 1 1.104-.432c1.92.864 3.36.912 4.416.096.384-.288.864-.192 1.152.144.288.384.192.864-.144 1.152-.816.624-1.728.96-2.784.96"/></svg>
